Numix-GalliumOS/64/mimetypes/wps-office-dot.svg

<svg xmlns="http://www.w3.org/2000/svg" xmlns:xlink="http://www.w3.org/1999/xlink" width="64px" height="64px" viewBox="0 0 64 64" version="1.1">
<g id="surface1">
<path style=" stroke:none;fill-rule:nonzero;fill:rgb(20.392157%,40.784314%,80.784314%);fill-opacity:1;" d="M 10.6875 0 C 9.3125 0 8 1.378906 8 2.8125 L 8 61.1875 C 8 62.539062 9.390625 64 10.6875 64 L 53.3125 64 C 54.609375 64 56 62.539062 56 61.1875 L 56 2.75 C 56 1.402344 54.597656 0 53.25 0 Z M 10.6875 0 "/>
<path style=" stroke:none;fill-rule:evenodd;fill:rgb(97.647059%,97.647059%,97.647059%);fill-opacity:1;" d="M 20 20 L 32 20 L 32 30 L 20 30 Z M 20 20 "/>
<path style=" stroke:none;fill-rule:evenodd;fill:rgb(97.647059%,97.647059%,97.647059%);fill-opacity:1;" d="M 34 20 L 44 20 L 44 22 L 34 22 Z M 34 20 "/>
<path style=" stroke:none;fill-rule:evenodd;fill:rgb(97.647059%,97.647059%,97.647059%);fill-opacity:1;" d="M 34 24 L 44 24 L 44 26 L 34 26 Z M 34 24 "/>
<path style=" stroke:none;fill-rule:evenodd;fill:rgb(97.647059%,97.647059%,97.647059%);fill-opacity:1;" d="M 34 28 L 44 28 L 44 30 L 34 30 Z M 34 28 "/>
<path style=" stroke:none;fill-rule:evenodd;fill:rgb(97.647059%,97.647059%,97.647059%);fill-opacity:1;" d="M 20 32 L 44 32 L 44 34 L 20 34 Z M 20 32 "/>
<path style=" stroke:none;fill-rule:evenodd;fill:rgb(97.647059%,97.647059%,97.647059%);fill-opacity:1;" d="M 20 36 L 44 36 L 44 38 L 20 38 Z M 20 36 "/>
<path style=" stroke:none;fill-rule:evenodd;fill:rgb(97.647059%,97.647059%,97.647059%);fill-opacity:1;" d="M 20 40 L 44 40 L 44 42 L 20 42 Z M 20 40 "/>
<path style=" stroke:none;fill-rule:nonzero;fill:rgb(0%,0%,0%);fill-opacity:0.196078;" d="M 8 48 L 8 61.335938 C 8 62.632812 9.375 64 10.664062 64 L 53.335938 64 C 54.625 64 56 62.632812 56 61.335938 L 56 48 Z M 8 48 "/>
<path style=" stroke:none;fill-rule:nonzero;fill:rgb(100%,100%,100%);fill-opacity:1;" d="M 20.390625 60.257812 C 20.457031 60.273438 20.53125 60.273438 20.605469 60.273438 C 20.6875 60.273438 20.761719 60.273438 20.828125 60.273438 C 21.378906 60.273438 21.835938 60.183594 22.207031 59.996094 C 22.585938 59.816406 22.890625 59.5625 23.109375 59.230469 C 23.347656 58.910156 23.511719 58.535156 23.601562 58.089844 C 23.710938 57.640625 23.765625 57.144531 23.765625 56.613281 C 23.765625 56.152344 23.726562 55.699219 23.644531 55.257812 C 23.570312 54.820312 23.429688 54.4375 23.234375 54.097656 C 23.035156 53.761719 22.765625 53.5 22.421875 53.300781 C 22.082031 53.089844 21.640625 52.992188 21.097656 52.992188 C 20.992188 52.992188 20.875 52.992188 20.746094 53.007812 C 20.613281 53.007812 20.5 53.015625 20.390625 53.039062 L 20.390625 60.257812 M 26.230469 56.613281 C 26.230469 57.613281 26.082031 58.460938 25.796875 59.167969 C 25.515625 59.863281 25.128906 60.429688 24.628906 60.867188 C 24.128906 61.308594 23.539062 61.628906 22.839844 61.84375 C 22.148438 62.03125 21.394531 62.132812 20.5625 62.132812 C 20.136719 62.132812 19.710938 62.113281 19.285156 62.066406 C 18.878906 62.03125 18.4375 61.96875 17.960938 61.875 L 17.960938 51.390625 C 18.519531 51.289062 19.035156 51.214844 19.519531 51.183594 C 20.007812 51.152344 20.464844 51.125 20.882812 51.125 C 21.691406 51.125 22.414062 51.234375 23.070312 51.445312 C 23.742188 51.652344 24.308594 51.980469 24.769531 52.433594 C 25.230469 52.875 25.582031 53.441406 25.835938 54.132812 C 26.101562 54.8125 26.230469 55.644531 26.230469 56.613281 "/>
<path style=" stroke:none;fill-rule:nonzero;fill:rgb(100%,100%,100%);fill-opacity:1;" d="M 29.761719 56.613281 C 29.761719 57.136719 29.78125 57.628906 29.820312 58.089844 C 29.871094 58.542969 29.96875 58.9375 30.101562 59.273438 C 30.238281 59.609375 30.4375 59.871094 30.691406 60.070312 C 30.9375 60.265625 31.273438 60.367188 31.691406 60.367188 C 32.105469 60.367188 32.433594 60.265625 32.679688 60.070312 C 32.941406 59.871094 33.136719 59.609375 33.269531 59.273438 C 33.417969 58.921875 33.507812 58.527344 33.550781 58.074219 C 33.597656 57.621094 33.632812 57.136719 33.632812 56.613281 C 33.632812 56.09375 33.597656 55.609375 33.550781 55.160156 C 33.507812 54.691406 33.417969 54.296875 33.269531 53.960938 C 33.136719 53.621094 32.949219 53.359375 32.703125 53.164062 C 32.449219 52.964844 32.113281 52.867188 31.691406 52.867188 C 31.273438 52.867188 30.9375 52.964844 30.691406 53.164062 C 30.4375 53.359375 30.238281 53.632812 30.101562 53.976562 C 29.96875 54.3125 29.871094 54.707031 29.820312 55.160156 C 29.78125 55.609375 29.761719 56.09375 29.761719 56.613281 M 27.300781 56.613281 C 27.300781 54.765625 27.683594 53.367188 28.457031 52.433594 C 29.238281 51.480469 30.3125 51.011719 31.691406 51.011719 C 33.128906 51.011719 34.222656 51.480469 34.96875 52.433594 C 35.71875 53.367188 36.09375 54.765625 36.09375 56.613281 C 36.09375 58.46875 35.710938 59.863281 34.953125 60.816406 C 34.191406 61.753906 33.105469 62.222656 31.71875 62.222656 C 30.28125 62.222656 29.179688 61.753906 28.417969 60.816406 C 27.667969 59.863281 27.300781 58.46875 27.300781 56.613281 "/>
<path style=" stroke:none;fill-rule:nonzero;fill:rgb(100%,100%,100%);fill-opacity:1;" d="M 46 51.25 L 46 53.023438 L 42.78125 53.023438 L 42.78125 62 L 40.332031 62 L 40.332031 53.023438 L 37.121094 53.023438 L 37.121094 51.25 L 46 51.25 "/>
</g>
</svg>

<svg xmlns="http://www.w3.org/2000/svg" viewBox="0 0 64 64">
 <g>
  <path d="m 10.688 0 c -1.375 0 -2.688 1.379 -2.688 2.813 l 0 58.38 c 0 1.352 1.391 2.813 2.688 2.813 l 42.625 0 c 1.297 0 2.688 -1.461 2.688 -2.813 l 0 -58.44 c 0 -1.348 -1.402 -2.75 -2.75 -2.75 m -42.563 0" style="fill:#3468ce;fill-opacity:1;stroke:none;fill-rule:nonzero"/>
  <path d="m 20 20 l 12 0 l 0 10 l -12 0 m 0 -10" style="fill:#f9f9f9;fill-opacity:1;stroke:none;fill-rule:evenodd"/>
  <path d="m 34 20 l 10 0 l 0 2 l -10 0 m 0 -2" style="fill:#f9f9f9;fill-opacity:1;stroke:none;fill-rule:evenodd"/>
  <path d="m 34 24 l 10 0 l 0 2 l -10 0 m 0 -2" style="fill:#f9f9f9;fill-opacity:1;stroke:none;fill-rule:evenodd"/>
  <path d="m 34 28 l 10 0 l 0 2 l -10 0 m 0 -2" style="fill:#f9f9f9;fill-opacity:1;stroke:none;fill-rule:evenodd"/>
  <path d="m 20 32 l 24 0 l 0 2 l -24 0 m 0 -2" style="fill:#f9f9f9;fill-opacity:1;stroke:none;fill-rule:evenodd"/>
  <path d="m 20 36 l 24 0 l 0 2 l -24 0 m 0 -2" style="fill:#f9f9f9;fill-opacity:1;stroke:none;fill-rule:evenodd"/>
  <path d="m 20 40 l 24 0 l 0 2 l -24 0 m 0 -2" style="fill:#f9f9f9;fill-opacity:1;stroke:none;fill-rule:evenodd"/>
  <path d="m 8 48 l 0 13.336 c 0 1.297 1.375 2.664 2.664 2.664 l 42.672 0 c 1.289 0 2.664 -1.367 2.664 -2.664 l 0 -13.336 m -48 0" style="fill:#000;fill-opacity:0.196;stroke:none;fill-rule:nonzero"/>
  <path d="m 20.391 60.26 c 0.066 0.016 0.141 0.016 0.215 0.016 c 0.082 0 0.156 0 0.223 0 c 0.551 0 1.01 -0.09 1.379 -0.277 c 0.379 -0.18 0.684 -0.434 0.902 -0.766 c 0.238 -0.32 0.402 -0.695 0.492 -1.141 c 0.109 -0.449 0.164 -0.945 0.164 -1.477 c 0 -0.461 -0.039 -0.914 -0.121 -1.355 c -0.074 -0.438 -0.215 -0.82 -0.41 -1.16 c -0.199 -0.336 -0.469 -0.598 -0.813 -0.797 c -0.34 -0.211 -0.781 -0.309 -1.324 -0.309 c -0.105 0 -0.223 0 -0.352 0.016 c -0.133 0 -0.246 0.008 -0.355 0.031 l 0 7.219 m 5.84 -3.645 c 0 1 -0.148 1.848 -0.434 2.555 c -0.281 0.695 -0.668 1.262 -1.168 1.699 c -0.5 0.441 -1.09 0.762 -1.789 0.977 c -0.691 0.188 -1.445 0.289 -2.277 0.289 c -0.426 0 -0.852 -0.02 -1.277 -0.066 c -0.406 -0.035 -0.848 -0.098 -1.324 -0.191 l 0 -10.484 c 0.559 -0.102 1.074 -0.176 1.559 -0.207 c 0.488 -0.031 0.945 -0.059 1.363 -0.059 c 0.809 0 1.531 0.109 2.188 0.32 c 0.672 0.207 1.238 0.535 1.699 0.988 c 0.461 0.441 0.813 1.01 1.066 1.699 c 0.266 0.68 0.395 1.512 0.395 2.48" style="fill:#fff;fill-opacity:1;stroke:none;fill-rule:nonzero"/>
  <path d="m 29.762 56.61 c 0 0.523 0.02 1.016 0.059 1.477 c 0.051 0.453 0.148 0.848 0.281 1.184 c 0.137 0.336 0.336 0.598 0.59 0.797 c 0.246 0.195 0.582 0.297 1 0.297 c 0.414 0 0.742 -0.102 0.988 -0.297 c 0.262 -0.199 0.457 -0.461 0.59 -0.797 c 0.148 -0.352 0.238 -0.746 0.281 -1.199 c 0.047 -0.453 0.082 -0.938 0.082 -1.461 c 0 -0.52 -0.035 -1 -0.082 -1.453 c -0.043 -0.469 -0.133 -0.863 -0.281 -1.199 c -0.133 -0.34 -0.32 -0.602 -0.566 -0.797 c -0.254 -0.199 -0.59 -0.297 -1.012 -0.297 c -0.418 0 -0.754 0.098 -1 0.297 c -0.254 0.195 -0.453 0.469 -0.59 0.813 c -0.133 0.336 -0.23 0.73 -0.281 1.184 c -0.039 0.449 -0.059 0.934 -0.059 1.453 m -2.461 0 c 0 -1.848 0.383 -3.246 1.156 -4.18 c 0.781 -0.953 1.855 -1.422 3.234 -1.422 c 1.438 0 2.531 0.469 3.277 1.422 c 0.75 0.934 1.125 2.332 1.125 4.18 c 0 1.855 -0.383 3.25 -1.141 4.203 c -0.762 0.938 -1.848 1.406 -3.234 1.406 c -1.438 0 -2.539 -0.469 -3.301 -1.406 c -0.75 -0.953 -1.117 -2.348 -1.117 -4.203" style="fill:#fff;fill-opacity:1;stroke:none;fill-rule:nonzero"/>
  <path d="m 46 51.25 l 0 1.773 l -3.219 0 l 0 8.977 l -2.449 0 l 0 -8.977 l -3.211 0 l 0 -1.773 l 8.879 0" style="fill:#fff;fill-opacity:1;stroke:none;fill-rule:nonzero"/>
 </g>
</svg>
